wp-content/plugins/yith-woocommerce-product-add-ons/assets/img/addons-icons/html_heading.svg

<?xml version="1.0" encoding="UTF-8"?>
<svg width="32px" height="32px" viewBox="0 0 32 32" version="1.1" xmlns="http://www.w3.org/2000/svg" xmlns:xlink="http://www.w3.org/1999/xlink">
    <title>Risorsa 3</title>
    <g id="Page-1" stroke="none" stroke-width="1" fill="none" fill-rule="evenodd">
        <g id="Add-option---color-swatch" transform="translate(-316.000000, -293.000000)" fill="#4E4E4E" fill-rule="nonzero">
            <g id="Group" transform="translate(268.000000, 270.000000)">
                <g id="Risorsa-3" transform="translate(48.000000, 23.000000)">
                    <path d="M24.8106667,32 L7.232,32 L7.232,28.0106667 L8.14933333,28.0106667 C10.4757897,28.1451099 12.4797728,26.3880631 12.6506667,24.064 L12.6506667,5.888 L8.128,5.888 C5.78572181,5.74174843 3.76505059,7.51460148 3.60533333,9.856 L3.60533333,10.6666667 L0,10.6666667 L0,0 L32,0 L32,10.6666667 L28.4373333,10.6666667 L28.4373333,9.856 C28.2775168,7.52342409 26.2701978,5.75393905 23.936,5.888 L19.392,5.888 L19.392,24.064 C19.5628363,26.3968784 21.5801396,28.157261 23.9146667,28.0106667 L24.8106667,28.0106667 L24.8106667,32 Z M9.04533333,30.1866667 L22.9973333,30.1866667 L22.9973333,29.8666667 C20.0167432,29.5815753 17.7035847,27.1409199 17.5786667,24.1493333 L17.5786667,4.07466667 L23.9786667,4.07466667 C26.9602019,3.98372892 29.5849327,6.02618153 30.2293333,8.93866667 L30.2293333,8.93866667 L30.2293333,1.81333333 L1.81333333,1.81333333 L1.81333333,8.93866667 C2.45418304,5.99673997 5.1199466,3.94338155 8.128,4.07466667 L14.528,4.07466667 L14.528,24.064 C14.4510407,27.1147718 12.0868423,29.6169584 9.04533333,29.8666667 L9.04533333,30.1866667 Z" id="Shape"></path>
                </g>
            </g>
        </g>
    </g>
</svg>

<?xml version="1.0" encoding="utf-8"?>
<!-- Generator: Adobe Illustrator 16.0.0, SVG Export Plug-In . SVG Version: 6.00 Build 0)  -->
<!DOCTYPE svg PUBLIC "-//W3C//DTD SVG 1.1//EN" "http://www.w3.org/Graphics/SVG/1.1/DTD/svg11.dtd">
<svg version="1.1" id="Layer_1" xmlns="http://www.w3.org/2000/svg" xmlns:xlink="http://www.w3.org/1999/xlink" x="0px" y="0px"
	 width="32px" height="32px" viewBox="0 0 32 32" enable-background="new 0 0 32 32" xml:space="preserve">
<title>Risorsa 3</title>
<g id="Block-Creation">
	<g id="Add-option---modal-window" transform="translate(-316.000000, -293.000000)">
		<g id="Group" transform="translate(268.000000, 270.000000)">
			<g id="Risorsa-3" transform="translate(48.000000, 23.000000)">
				<path id="Shape" d="M24.811,32H7.232v-3.989h0.917c2.326,0.134,4.331-1.622,4.501-3.946V5.888H8.128
					C5.786,5.742,3.765,7.515,3.605,9.856v0.811H0V0h32v10.667h-3.563V9.856c-0.16-2.333-2.168-4.102-4.502-3.968h-4.543v18.176
					c0.17,2.332,2.188,4.093,4.521,3.946h0.896V32z M9.045,30.187h13.953v-0.319c-2.981-0.285-5.295-2.727-5.42-5.718V4.075h6.4
					c2.981-0.091,5.606,1.952,6.251,4.864l0,0V1.813H1.813v7.125C2.454,5.997,5.12,3.943,8.128,4.075h6.4v19.99
					c-0.077,3.051-2.441,5.553-5.482,5.803V30.187z"/>
			</g>
		</g>
	</g>
</g>
</svg>
